float2 R:TARGETSIZE;

cbuffer controls:register(b0){
	int Value;
};

float4 pBinaryPad(float4 PosWVP:SV_POSITION,float2 x:TEXCOORD0):SV_TARGET{
	uint2 pixelIndex = (int2) (x * R);
	int index = pixelIndex.x + R.x * pixelIndex.y;
	
	return (Value >> index) & 1;
}

technique10 BinaryPad{
	pass P1 <string format="R8G8B8A8_UNorm"; >
	{
		SetPixelShader(CompileShader(ps_4_0,pBinaryPad()));
	}
}
